X: 29146
T: Netto Superstar
R: reel
M: 4/4
K: Dmajor
AG|:FADA FAAd|cABc dBcd|eA A2 g2 ed|cdec A2 (3DEF|
G2 GF GABd|cA A2 a2 ag|fbaf gece|1 eddc dBAG:|2 eddc d2 ef||
g3 g fgga|baga bafd|effe f3 f|efed ecAc|
e4 efed|cA A2 eAcA|cd d2 edBA|1 Bddc defd:|2 Bd d2 edBA|Bddc d2||

